;FLAVOR:Marlin
;TIME:10983
;Filament used: 10.3998m
;Layer height: 0.2
;MINX:44.023
;MINY:49
;MINZ:0.2
;MAXX:105.977
;MAXY:101
;MAXZ:65
;Generated with Cura_SteamEngine 4.7.1
M140 S80
M105
M190 S80
M104 S240
M105
M109 S240
M82 ;absolute extrusion mode
M201 X500.00 Y500.00 Z100.00 E5000.00 ;Setup machine max acceleration
M203 X500.00 Y500.00 Z10.00 E50.00 ;Setup machine max feedrate
M204 P500.00 R1000.00 T500.00 ;Setup Print/Retract/Travel acceleration
M205 X8.00 Y8.00 Z0.40 E5.00 ;Setup Jerk
M220 S100 ;Reset Feedrate
M221 S100 ;Reset Flowrate

G28 ;Home

G92 E0 ;Reset Extruder
G1 Z2.0 F3000 ;Move Z Axis up
G1 X10.1 Y20 Z0.28 F5000.0 ;Move to start position
G1 X10.1 Y100.0 Z0.28 F1500.0 E8 ;Draw the first line
G1 X10.4 Y100.0 Z0.28 F5000.0 ;Move to side a little
G1 X10.4 Y20 Z0.28 F1500.0 E15 ;Draw the second line
G92 E0 ;Reset Extruder
G1 Z2.0 F3000 ;Move Z Axis up

G92 E0
G92 E0
G1 F2700 E-5
;LAYER_COUNT:325
;LAYER:0
M107
G0 F6000 X52.939 Y53.272 Z0.2
;TYPE:SKIRT
G1 F2700 E0
G1 F1200 X53.612 Y52.603 E0.03156
G1 X54.122 Y52.109 E0.05518
G1 X54.823 Y51.486 E0.08637
G1 X55.574 Y50.924 E0.11757
G1 X56.37 Y50.429 E0.14874
G1 X57.206 Y50.004 E0.17994
G1 X58.075 Y49.651 E0.21113
G1 X58.971 Y49.373 E0.24234
G1 X59.887 Y49.173 E0.27352
G1 X60.817 Y49.052 E0.30471
G1 X61.35 Y49.018 E0.32248
G1 X61.557 Y49.01 E0.32937
G1 X61.889 Y49.002 E0.34041
G1 X62.126 Y49 E0.34829
G1 X87.679 Y49.001 E1.19819
G1 X88.38 Y49.011 E1.22151
G1 X89.316 Y49.064 E1.25269
G1 X90.245 Y49.197 E1.2839
G1 X91.158 Y49.409 E1.31508
G1 X92.051 Y49.697 E1.34629
G1 X92.915 Y50.061 E1.37747
G1 X93.746 Y50.497 E1.40868
G1 X94.536 Y51.002 E1.43987
G1 X95.28 Y51.572 E1.47104
G1 X95.677 Y51.921 E1.48862
G1 X95.83 Y52.062 E1.49554
G1 X96.053 Y52.273 E1.50575
G1 X96.371 Y52.583 E1.52052
G1 X97.212 Y53.42 E1.55999
G1 X97.77 Y53.992 E1.58656
G1 X98.413 Y54.714 E1.61872
G1 X99.025 Y55.465 E1.65094
G1 X99.147 Y55.617 E1.65743
G1 X99.715 Y56.341 E1.68803
G1 X100.129 Y56.882 E1.71069
G1 X100.694 Y57.694 E1.74359
G1 X101.208 Y58.508 E1.77561
G1 X101.309 Y58.671 E1.78199
G1 X101.797 Y59.476 E1.8133
G1 X102.127 Y60.036 E1.83492
G1 X102.596 Y60.922 E1.86826
G1 X103.008 Y61.794 E1.90034
G1 X103.092 Y61.976 E1.907
G1 X103.55 Y62.993 E1.9441
G1 X103.79 Y63.551 E1.96431
G1 X104.129 Y64.449 E1.99623
G1 X104.375 Y65.199 E2.02248
G1 X104.745 Y66.379 E2.06361
G1 X104.93 Y67.005 E2.08532
G1 X105.161 Y67.933 E2.11713
G1 X105.367 Y68.947 E2.15155
G1 X105.407 Y69.155 E2.15859
G1 X105.566 Y70.028 E2.18811
G1 X105.671 Y70.641 E2.20879
G1 X105.794 Y71.627 E2.24184
G1 X105.89 Y72.85 E2.28264
G1 X105.937 Y73.623 E2.3084
G1 X105.975 Y74.42 E2.33494
G1 X105.977 Y75.402 E2.3676
G1 X105.937 Y76.339 E2.39879
G1 X105.927 Y76.54 E2.40549
G1 X105.876 Y77.376 E2.43334
G1 X105.816 Y78.183 E2.46026
G1 X105.702 Y79.139 E2.49228
G1 X105.556 Y80.028 E2.52224
G1 X105.367 Y81.07 E2.55747
G1 X105.217 Y81.835 E2.5834
G1 X104.982 Y82.798 E2.61637
G1 X104.696 Y83.775 E2.65022
G1 X104.637 Y83.97 E2.657
G1 X104.366 Y84.834 E2.68712
G1 X104.155 Y85.477 E2.70963
G1 X103.807 Y86.395 E2.74228
G1 X103.43 Y87.271 E2.774
G1 X103.358 Y87.435 E2.77996
G1 X102.944 Y88.354 E2.81348
G1 X102.696 Y88.885 E2.83297
G1 X102.234 Y89.767 E2.86609
G1 X101.722 Y90.646 E2.89992
G1 X101.623 Y90.812 E2.90635
G1 X101.125 Y91.632 E2.93826
G1 X100.803 Y92.147 E2.95846
G1 X100.243 Y92.959 E2.99127
G1 X99.639 Y93.756 E3.02453
G1 X99.512 Y93.92 E3.03143
G1 X98.937 Y94.649 E3.06231
G1 X98.539 Y95.142 E3.08338
G1 X97.876 Y95.89 E3.11663
G1 X97.069 Y96.721 E3.15515
G1 X96.367 Y97.419 E3.18808
G1 X95.867 Y97.902 E3.2112
G1 X95.165 Y98.524 E3.2424
G1 X94.413 Y99.084 E3.27358
G1 X93.615 Y99.578 E3.3048
G1 X92.779 Y100.003 E3.33599
G1 X91.91 Y100.354 E3.36716
G1 X91.013 Y100.63 E3.39838
G1 X90.097 Y100.829 E3.42955
G1 X89.167 Y100.95 E3.46075
G1 X88.651 Y100.982 E3.47794
G1 X88.445 Y100.99 E3.4848
G1 X88.111 Y100.998 E3.49591
G1 X87.874 Y101 E3.50379
G1 X62.321 Y100.999 E4.35369
G1 X61.619 Y100.989 E4.37704
G1 X60.683 Y100.936 E4.40822
G1 X59.755 Y100.803 E4.4394
G1 X58.841 Y100.591 E4.47061
G1 X57.948 Y100.303 E4.50182
G1 X57.084 Y99.939 E4.533
G1 X56.253 Y99.503 E4.56421
G1 X55.463 Y98.998 E4.5954
G1 X54.719 Y98.428 E4.62657
G1 X54.291 Y98.051 E4.64554
G1 X54.137 Y97.908 E4.65253
G1 X53.931 Y97.711 E4.66201
G1 X53.586 Y97.374 E4.67805
G1 X52.784 Y96.575 E4.71571
G1 X52.238 Y96.016 E4.7417
G1 X51.583 Y95.282 E4.77442
G1 X50.964 Y94.522 E4.80702
G1 X50.843 Y94.37 E4.81348
G1 X50.28 Y93.652 E4.84382
G1 X49.87 Y93.116 E4.86627
G1 X49.306 Y92.306 E4.8991
G1 X48.792 Y91.492 E4.93112
G1 X48.689 Y91.326 E4.93762
G1 X48.195 Y90.51 E4.96934
G1 X47.871 Y89.96 E4.99057
G1 X47.403 Y89.076 E5.02384
G1 X46.983 Y88.187 E5.05654
G1 X46.897 Y88.001 E5.06336
G1 X46.448 Y87.003 E5.09976
G1 X46.206 Y86.44 E5.12014
G1 X45.87 Y85.548 E5.15184
G1 X45.625 Y84.801 E5.17799
G1 X45.255 Y83.621 E5.21912
G1 X45.07 Y82.995 E5.24083
G1 X44.839 Y82.066 E5.27267
G1 X44.628 Y81.027 E5.30793
G1 X44.587 Y80.814 E5.31515
G1 X44.433 Y79.966 E5.34381
G1 X44.328 Y79.351 E5.36457
G1 X44.206 Y78.372 E5.39738
G1 X44.125 Y77.354 E5.43134
G1 X44.11 Y77.15 E5.43815
G1 X44.063 Y76.377 E5.46391
G1 X44.025 Y75.58 E5.49044
G1 X44.023 Y74.598 E5.52311
G1 X44.063 Y73.661 E5.5543
G1 X44.073 Y73.459 E5.56103
G1 X44.125 Y72.608 E5.58938
G1 X44.184 Y71.815 E5.61583
G1 X44.298 Y70.862 E5.64775
G1 X44.449 Y69.942 E5.67876
G1 X44.484 Y69.74 E5.68558
G1 X44.634 Y68.922 E5.71324
G1 X44.783 Y68.165 E5.7389
G1 X45.018 Y67.202 E5.77187
G1 X45.304 Y66.225 E5.80573
G1 X45.363 Y66.03 E5.81251
G1 X45.634 Y65.166 E5.84262
G1 X45.845 Y64.523 E5.86513
G1 X46.193 Y63.605 E5.89779
G1 X46.57 Y62.729 E5.9295
G1 X46.642 Y62.565 E5.93546
G1 X47.056 Y61.646 E5.96899
G1 X47.304 Y61.115 E5.98848
G1 X47.766 Y60.233 E6.0216
G1 X48.278 Y59.354 E6.05543
G1 X48.377 Y59.188 E6.06186
G1 X48.873 Y58.372 E6.09362
G1 X49.201 Y57.847 E6.11421
G1 X49.764 Y57.03 E6.14721
G1 X50.331 Y56.282 E6.17843
G1 X50.45 Y56.128 E6.1849
G1 X51.089 Y55.316 E6.21927
G1 X51.466 Y54.851 E6.23918
G1 X52.107 Y54.129 E6.27129
G1 X52.799 Y53.414 E6.30438
G1 X52.939 Y53.272 E6.31102
G0 F6000 X53.221 Y53.555
G1 F1200 X53.89 Y52.89 E6.34239
G1 X54.4 Y52.396 E6.36601
G1 X55.089 Y51.785 E6.39663
G1 X55.827 Y51.236 E6.42723
G1 X56.611 Y50.753 E6.45785
G1 X57.434 Y50.34 E6.48848
G1 X58.289 Y49.999 E6.5191
G1 X59.171 Y49.735 E6.54972
G1 X60.073 Y49.548 E6.58036
G1 X61.366 Y49.418 E6.62358
G1 X61.573 Y49.41 E6.63047
G1 X61.893 Y49.402 E6.64112
G1 X62.13 Y49.4 E6.649
G1 X87.522 Y49.4 E7.49354
G1 X88.374 Y49.411 E7.52188
G1 X89.293 Y49.464 E7.5525
G1 X90.204 Y49.597 E7.58312
G1 X91.1 Y49.808 E7.61373
G1 X91.975 Y50.096 E7.64437
G1 X92.821 Y50.459 E7.67499
G1 X93.632 Y50.894 E7.7056
G1 X94.403 Y51.398 E7.73624
G1 X95.406 Y52.215 E7.77926
G1 X95.559 Y52.356 E7.78618
G1 X95.774 Y52.559 E7.79602
G1 X96.009 Y52.788 E7.80693
G1 X97.049 Y53.825 E7.85578
G1 X97.483 Y54.271 E7.87648
G1 X98.103 Y54.967 E7.90748
G1 X98.715 Y55.718 E7.9397
G1 X98.832 Y55.864 E7.94592
G1 X99.397 Y56.584 E7.97637
G1 X99.811 Y57.125 E7.99902
G1 X100.356 Y57.908 E8.03075
G1 X100.87 Y58.722 E8.06277
G1 X100.967 Y58.878 E8.06888
G1 X101.38 Y59.558 E8.09534
G1 X101.782 Y60.239 E8.12165
G1 X102.234 Y61.093 E8.15378
G1 X102.646 Y61.965 E8.18586
G1 X102.727 Y62.14 E8.19227
G1 X103.185 Y63.157 E8.22937
G1 X103.266 Y63.341 E8.23606
G1 X103.423 Y63.708 E8.24933
G1 X103.749 Y64.573 E8.28008
G1 X104.037 Y65.453 E8.31088
G1 X104.31 Y66.323 E8.3412
G1 X104.546 Y67.119 E8.36882
G1 X104.769 Y68.013 E8.39946
G1 X104.975 Y69.027 E8.43388
G1 X105.014 Y69.227 E8.44066
G1 X105.172 Y70.095 E8.47
G1 X105.277 Y70.708 E8.49069
G1 X105.396 Y71.659 E8.52256
G1 X105.477 Y72.679 E8.5566
G1 X105.537 Y73.648 E8.58889
G1 X105.575 Y74.438 E8.61519
G1 X105.577 Y75.385 E8.64669
G1 X105.537 Y76.322 E8.67788
G1 X105.527 Y76.515 E8.68431
G1 X105.466 Y77.503 E8.71723
G1 X105.417 Y78.153 E8.73891
G1 X105.307 Y79.074 E8.76976
G1 X105.161 Y79.963 E8.79973
G1 X105.129 Y80.149 E8.80601
G1 X104.974 Y80.998 E8.83471
G1 X104.825 Y81.758 E8.86047
G1 X104.598 Y82.686 E8.89224
G1 X104.312 Y83.663 E8.9261
G1 X104.255 Y83.851 E8.93264
G1 X103.986 Y84.709 E8.96254
G1 X103.775 Y85.352 E8.98505
G1 X103.44 Y86.237 E9.01653
G1 X103.063 Y87.113 E9.04825
G1 X102.644 Y88.047 E9.08229
G1 X102.581 Y88.185 E9.08734
G1 X102.333 Y88.716 E9.10683
G1 X101.888 Y89.565 E9.13871
G1 X101.281 Y90.605 E9.17876
G1 X100.786 Y91.42 E9.21048
G1 X100.464 Y91.935 E9.23068
G1 X99.924 Y92.717 E9.26229
G1 X99.32 Y93.514 E9.29555
G1 X99.198 Y93.672 E9.30219
G1 X98.626 Y94.397 E9.3329
G1 X98.228 Y94.89 E9.35398
G1 X97.589 Y95.612 E9.38605
G1 X96.913 Y96.309 E9.41834
G1 X96.089 Y97.131 E9.45705
G1 X95.589 Y97.614 E9.48017
G1 X94.899 Y98.224 E9.51081
G1 X94.16 Y98.772 E9.54141
G1 X93.375 Y99.254 E9.57204
G1 X92.552 Y99.666 E9.60266
G1 X91.696 Y100.005 E9.63328
G1 X90.814 Y100.269 E9.6639
G1 X89.912 Y100.455 E9.69453
G1 X88.635 Y100.582 E9.73721
G1 X88.429 Y100.59 E9.74407
G1 X88.107 Y100.598 E9.75478
G1 X87.87 Y100.6 E9.76267
G1 X62.327 Y100.599 E10.61223
G1 X61.625 Y100.589 E10.63558
G1 X60.706 Y100.536 E10.6662
G1 X59.795 Y100.403 E10.69682
G1 X58.899 Y100.192 E10.72743
G1 X58.024 Y99.904 E10.75807
G1 X57.178 Y99.541 E10.78869
G1 X56.367 Y99.106 E10.8193
G1 X55.596 Y98.602 E10.84994
G1 X54.563 Y97.758 E10.89431
G1 X54.409 Y97.615 E10.9013
G1 X54.211 Y97.425 E10.91042
G1 X53.869 Y97.09 E10.92634
G1 X52.96 Y96.183 E10.96905
G1 X52.524 Y95.736 E10.98982
G1 X51.893 Y95.029 E11.02134
G1 X51.274 Y94.269 E11.05394
G1 X51.157 Y94.123 E11.06017
G1 X50.681 Y93.517 E11.0858
G1 X50.188 Y92.873 E11.11277
G1 X49.644 Y92.092 E11.14443
G1 X49.031 Y91.119 E11.18268
G1 X48.611 Y90.427 E11.2096
G1 X48.216 Y89.757 E11.23547
G1 X47.765 Y88.905 E11.26753
G1 X47.345 Y88.016 E11.30023
G1 X47.262 Y87.837 E11.3068
G1 X46.813 Y86.839 E11.34319
G1 X46.574 Y86.283 E11.36332
G1 X46.25 Y85.423 E11.39389
G1 X45.963 Y84.547 E11.42455
G1 X45.69 Y83.677 E11.45488
G1 X45.454 Y82.881 E11.48249
G1 X45.231 Y81.987 E11.51314
G1 X45.02 Y80.948 E11.5484
G1 X44.98 Y80.742 E11.55538
G1 X44.827 Y79.899 E11.58387
G1 X44.722 Y79.284 E11.60463
G1 X44.604 Y78.341 E11.63623
G1 X44.523 Y77.323 E11.6702
G1 X44.463 Y76.352 E11.70256
G1 X44.425 Y75.562 E11.72886
G1 X44.423 Y74.615 E11.76036
G1 X44.463 Y73.678 E11.79155
G1 X44.473 Y73.483 E11.79805
G1 X44.535 Y72.48 E11.83147
G1 X44.583 Y71.845 E11.85265
G1 X44.693 Y70.927 E11.8834
G1 X44.844 Y70.007 E11.91441
G1 X44.878 Y69.812 E11.921
G1 X45.054 Y68.856 E11.95333
G1 X45.175 Y68.242 E11.97414
G1 X45.402 Y67.314 E12.00592
G1 X45.688 Y66.337 E12.03978
G1 X45.745 Y66.149 E12.04631
G1 X46.014 Y65.291 E12.07622
G1 X46.225 Y64.648 E12.09872
G1 X46.56 Y63.763 E12.1302
G1 X46.937 Y62.887 E12.16192
G1 X47.356 Y61.953 E12.19597
G1 X47.419 Y61.815 E12.20101
G1 X47.667 Y61.284 E12.2205
G1 X48.112 Y60.435 E12.25239
G1 X48.719 Y59.395 E12.29244
G1 X49.212 Y58.584 E12.324
G1 X49.54 Y58.059 E12.34459
G1 X50.083 Y57.272 E12.37639
G1 X50.764 Y56.375 E12.41385
G1 X51.301 Y55.692 E12.44275
G1 X51.777 Y55.103 E12.46794
G1 X52.394 Y54.407 E12.49887
G1 X53.086 Y53.692 E12.53197
G1 X53.221 Y53.555 E12.53837
G0 F6000 X53.503 Y53.839
G1 F1200 X54.168 Y53.178 E12.56955
G1 X54.678 Y52.684 E12.59317
G1 X55.354 Y52.084 E12.62323
G1 X56.08 Y51.548 E12.65324
G1 X56.851 Y51.077 E12.68329
G1 X57.661 Y50.677 E12.71334
G1 X58.502 Y50.349 E12.74336
G1 X59.37 Y50.098 E12.77342
G1 X60.256 Y49.924 E12.80345
G1 X61.381 Y49.818 E12.84103
G1 X61.588 Y49.81 E12.84792
G1 X61.896 Y49.802 E12.85817
G1 X62.133 Y49.8 E12.86605
G1 X87.522 Y49.8 E13.71049
G1 X88.368 Y49.811 E13.73863
G1 X89.27 Y49.864 E13.76869
G1 X90.163 Y49.996 E13.79871
G1 X91.042 Y50.207 E13.82878
G1 X91.898 Y50.495 E13.85882
G1 X92.725 Y50.857 E13.88884
G1 X93.517 Y51.291 E13.91888
G1 X94.267 Y51.794 E13.94892
G1 X95.135 Y52.509 E13.98632
G1 X95.288 Y52.65 E13.99324
G1 X95.495 Y52.846 E14.00272
G1 X95.806 Y53.15 E14.01718
G1 X96.647 Y53.987 E14.05665
G1 X97.196 Y54.55 E14.0828
G1 X97.793 Y55.219 E14.11263
G1 X98.405 Y55.97 E14.14485
G1 X98.518 Y56.111 E14.15086
G1 X98.999 Y56.723 E14.17675
G1 X99.493 Y57.368 E14.20377
G1 X100.017 Y58.121 E14.23428
G1 X100.625 Y59.086 E14.27222
G1 X101.108 Y59.883 E14.30321
G1 X101.438 Y60.443 E14.32483
G1 X101.872 Y61.264 E14.35572
G1 X102.284 Y62.136 E14.3878
G1 X102.362 Y62.305 E14.39399
G1 X102.898 Y63.498 E14.43749
G1 X103.055 Y63.865 E14.45076
G1 X103.369 Y64.698 E14.48037
G1 X103.655 Y65.573 E14.51099
G1 X103.978 Y66.606 E14.54699
G1 X104.163 Y67.232 E14.5687
G1 X104.377 Y68.092 E14.59818
G1 X104.583 Y69.106 E14.63259
G1 X104.62 Y69.299 E14.63913
G1 X104.778 Y70.163 E14.66834
G1 X104.883 Y70.776 E14.68902
G1 X104.997 Y71.691 E14.71969
G1 X105.078 Y72.711 E14.75373
G1 X105.091 Y72.899 E14.75999
G1 X105.146 Y73.815 E14.79051
G1 X105.176 Y74.457 E14.81189
G1 X105.178 Y75.368 E14.84219
G1 X105.138 Y76.305 E14.87338
G1 X105.128 Y76.491 E14.87958
G1 X105.067 Y77.473 E14.9123
G1 X105.018 Y78.123 E14.93398
G1 X104.912 Y79.009 E14.96366
G1 X104.766 Y79.898 E14.99363
G1 X104.735 Y80.077 E14.99967
G1 X104.554 Y81.066 E15.03311
G1 X104.433 Y81.68 E15.05392
G1 X104.214 Y82.574 E15.08454
G1 X103.928 Y83.551 E15.1184
G1 X103.873 Y83.731 E15.12466
G1 X103.606 Y84.584 E15.15439
G1 X103.395 Y85.227 E15.17689
G1 X103.072 Y86.079 E15.2072
G1 X102.695 Y86.955 E15.23892
G1 X102.628 Y87.107 E15.24444
G1 X102.219 Y88.015 E15.27757
G1 X101.971 Y88.546 E15.29706
G1 X101.543 Y89.364 E15.32776
G1 X101.031 Y90.243 E15.3616
G1 X100.939 Y90.398 E15.36759
G1 X100.52 Y91.089 E15.39447
G1 X100.125 Y91.722 E15.41929
G1 X99.605 Y92.476 E15.44975
G1 X99.001 Y93.273 E15.48301
G1 X98.884 Y93.424 E15.48937
G1 X98.315 Y94.146 E15.51994
G1 X97.917 Y94.639 E15.54101
G1 X97.302 Y95.333 E15.57186
G1 X96.626 Y96.03 E15.60415
G1 X96.504 Y96.154 E15.60994
G1 X95.811 Y96.843 E15.64244
G1 X95.311 Y97.326 E15.66556
G1 X94.634 Y97.924 E15.6956
G1 X93.907 Y98.46 E15.72565
G1 X93.136 Y98.93 E15.75568
G1 X92.326 Y99.329 E15.78571
G1 X91.483 Y99.655 E15.81577
G1 X90.616 Y99.906 E15.84579
G1 X89.729 Y100.078 E15.87584
G1 X88.62 Y100.182 E15.91289
G1 X88.414 Y100.19 E15.91975
G1 X88.104 Y100.198 E15.93006
G1 X87.867 Y100.2 E15.93795
G1 X62.333 Y100.199 E16.78721
G1 X61.631 Y100.189 E16.81056
G1 X60.729 Y100.136 E16.84061
G1 X59.836 Y100.004 E16.87064
G1 X58.958 Y99.793 E16.90067
G1 X58.102 Y99.505 E16.93071
G1 X57.274 Y99.143 E16.96077
G1 X56.482 Y98.709 E16.9908
G1 X55.732 Y98.206 E17.02084
G1 X54.835 Y97.464 E17.05956
G1 X54.681 Y97.321 E17.06655
G1 X54.49 Y97.139 E17.07532
G1 X54.151 Y96.807 E17.0911
G1 X53.246 Y95.904 E17.13363
G1 X52.81 Y95.457 E17.15439
G1 X52.203 Y94.776 E17.18474
G1 X51.584 Y94.016 E17.21734
G1 X51.472 Y93.876 E17.2233
G1 X50.915 Y93.166 E17.25331
G1 X50.505 Y92.63 E17.27576
G1 X49.983 Y91.879 E17.30618
G1 X49.373 Y90.911 E17.34423
G1 X48.953 Y90.219 E17.37116
G1 X48.561 Y89.554 E17.39683
G1 X48.126 Y88.734 E17.42771
G1 X47.706 Y87.845 E17.46041
G1 X47.627 Y87.673 E17.4667
G1 X47.178 Y86.675 E17.5031
G1 X47.099 Y86.496 E17.50961
G1 X46.941 Y86.126 E17.52299
G1 X46.63 Y85.299 E17.55238
G1 X46.345 Y84.427 E17.58289
G1 X46.022 Y83.394 E17.61889
G1 X45.837 Y82.768 E17.6406
G1 X45.623 Y81.907 E17.67011
G1 X45.412 Y80.868 E17.70537
G1 X45.374 Y80.67 E17.71208
G1 X45.221 Y79.832 E17.74041
G1 X45.116 Y79.217 E17.76116
G1 X45.003 Y78.309 E17.79159
G1 X44.922 Y77.291 E17.82556
G1 X44.909 Y77.101 E17.83189
G1 X44.854 Y76.185 E17.86241
G1 X44.824 Y75.543 E17.88379
G1 X44.822 Y74.632 E17.91409
G1 X44.862 Y73.695 E17.94528
G1 X44.872 Y73.508 E17.95151
G1 X44.934 Y72.51 E17.98477
G1 X44.982 Y71.875 E18.00595
G1 X45.088 Y70.992 E18.03553
G1 X45.271 Y69.884 E18.07288
G1 X45.446 Y68.934 E18.10501
G1 X45.567 Y68.32 E18.12582
G1 X45.786 Y67.426 E18.15644
G1 X46.072 Y66.449 E18.1903
G1 X46.127 Y66.269 E18.19656
G1 X46.394 Y65.416 E18.22629
G1 X46.605 Y64.773 E18.24879
G1 X46.928 Y63.921 E18.2791
G1 X47.305 Y63.045 E18.31082
G1 X47.372 Y62.893 E18.31634
G1 X47.781 Y61.985 E18.34947
G1 X48.029 Y61.454 E18.36896
G1 X48.457 Y60.636 E18.39966
G1 X48.969 Y59.757 E18.4335
G1 X49.061 Y59.602 E18.43949
G1 X49.551 Y58.795 E18.47089
G1 X49.879 Y58.27 E18.49148
